!!!SOCIAL_FUNCTION:	war songs
!!!PDT:	1929
!!!OTL: No_129_While_We_Drink_the_Wine.krn
!!!REG: Southwest
!!!LANG: Non-Tone
!!!LING_GROUP: Uto-Aztecan
**kern
*staff1
=1-
*clefF4
*k[b-e-a-d-]
*M2/4
[4c\
8c\L]
16c\L
16B-\JJ
=2
8c\L
8c\J
8A-\
8r
=3
[4B-\
8B-\L]
16B-\L
16G\JJ
=4
8B-\L
8B-\J
4F\
=5
8F\L
8F\J
8B-\L
8F\J
=6
4F\
4F\
=7
4F\
16F\LL
16E-\JJ
8r
=8
4F\
4F\
=9
[2F\
=10
2F\]
=11
[4c\
8c\L]
16c\L
16B-\JJ
=12
8c\L
8c\J
8A-\
8r
=13
[4B-\
8B-\L]
16B-\L
16G\JJ
=14
8B-\L
8B-\J
4F\
=15
8F\L
8F\J
8B-\L
8F\J
=16
4F\
4F\
=17
4F\
16F\LL
16E-\JJ
8r
=18
4F\
4F\
=19
[2F\
=20
8F\]
8r
4G\
=21
4B-\
8G\L
8F\J
=22
4F\
4F\
=23
8G\L
8F\J
8G\L
8F\J
=24||
*M3/4
8F\L
8D-\J
8G\L
8G\J
8B-\L
8G\J
=25||
*M2/4
4F\
4F\
=26
4F\
16F\LL
16E-\JJ
8r
=27
4F\
4F\
=28
[2F\
=29
8F\]
8r
4G\
=30
4B-\
8G\L
8F\J
=31
4F\
4F\
=32
8G\L
8F\J
8G\L
8F\J
=33||
*M3/4
8F\L
8D-\J
8G\L
8G\J
8B-\L
8G\J
=34||
*M2/4
4F\
4F\
=35
4F\
16F\LL
16E-\JJ
8r
=36
4F\
4F\
=37
2F\
==
*-
